X: 20436
T: John J Kimmel's Favourite
R: hornpipe
M: 4/4
K: Bminor
^aa|:bf (3dcB fdBF|GF E3F GE|Ff3 cf3|dcBd cfgf|bf (3dcB fdBF|
GF E3F GE|1 Ff2 g fdcd|B2 f2 gg f2:|2 Ff2 g fdcd|B4 AABA|
|:DFAd DGBd|D2 (3cBA fdBG|(3ggg ge cABc|(3dag (3fed (3cBA (3GFE|DFAd DGBd|
D2 (3cBA fdBG|(3ggg ge cABc|1 (3dcd fe d2 (3BAF:|2 (3dcd fe d2cd|
|:(3ecA ~A2 (3ecA ~A2|(3gcA (3fcA (3ecA ~A2|(3gcA (3fcA (3ecA dd|
|:DFAd DG Bd|D2 (3cBA fd BG|(3ggg ge cA Bc|
|:bf (3dcB fd BF|GF E3F GE|Ff3 cf3|dc Bd cf gf|bf (3dcB fd BF|
GF E3F GE|1 Ff2 g fd cd|B2 f2 gg f2:|2 Ff2 g fdcd|B4 A3c|
|:(3dcd (3fdf (3afa d'd'|(3bag eg B2 b2|(3bag (3gfe (3bag ga|(3bag (3fdB A2 (3ABc|(3dcd (3fdf (3afa d'd'|
(3bag eg B2 b2|1 (3bag (3gfe (3bag (3gfe|(3dfa (3baf d2 zc:|2 (3bag (3gfe (3bag (3gfe|(3dfa (3baf d2 zD|
|:DFAd DGBd|D2 (3cBA fdBG|(3ggg ge cABc|(3dag (3fed (3cBA (3GFE|
DFAd DGBd|D2 (3cBA fdBG|(3ggg ge cABc|1 (3dcd fe d2 (3BAF:|2 (3dcd fe d2 z2||

